X:344
T:Dunkeld House. RH.344
R:jig
S:Rev.R.Harrison’s MS,c1815,Cumbria
O:England
A:Temple Sowerby,Cumbria
Z:vmp.Simon Wilson. Review PJH, 2008.
M:6/8
L:1/8
Q:3/8=120
K:Em
e|EFE G2A|B2E G2E|DED F2D|FAd AFD|\
EFE G2A|B2E G2E|dcB AGF|BGE E2:|!
f|gbg ege|gbg ege|faf dfd|faf dfd|\
gbg ege|gbg ege|gbg faf|g2e e2f|!
gbg ege|gbg ege|faf dfd|faf dfd|\
ege faf|gbg faf|dcB AGF|BGE E2|]

